X:1755
R:Polska
T: Innherradspolska
O: Innherrad, Jämtland
D: [[!Mittlåt]] - "Grannlåtar"
Z: Håkan Lidén 2010-01-20
G: Mittlåt
R: Polska
M: 3/4
L: 1/8
K: D
|: D>F E>G F>A | (3ABc (3dcB A>f | g>f e>d c>B | (3AGA (3BAG F>E |
D>F E>G F>A | (3ABc (3dcB A>f | g>f e>d (3cBc |1 d2 d4 :|2 d2 d3 f ||
|: a>f d<f b>a | (3gbg e>f g>e | g>e c<e a>g | (3fef (3afe d>f |
a>f d<f b>a | (3gbg e>f g>e | (3cAc (3ece (3afe |1 d2 d3 f :|2 d2 d4 |]
(:musicend:)
(:music:)
